X: 35101
T: Rolling Waves, The
R: jig
M: 6/8
K: Dmajor
|:FEF D3|D2d cAG|F3 D3|A2F GFE|
F3 D3|D2d cAG|Fc/A/F Gc/A/G|A2F GFE:|
|:D2d cAd|cAd cAG|F2d cAG|Fc/A/F GFE|
D2d cAd|g/f/ed cAG|Fc/A/F Gc/A/G|A2F GFE|
D2d cAd|cAG EFG|F2d cAG|AF/G/A GFE|
D2d cAd|fed cAG|Fc/A/F Gc/A/G|AF/G/A GFE||

